assets/icons/file_icons/changelog.svg

<?xml version="1.0" encoding="UTF-8"?><svg id="Done" xmlns="http://www.w3.org/2000/svg" xmlns:xlink="http://www.w3.org/1999/xlink" viewBox="0 0 14 14"><defs><style>.cls-1{fill:#fff;}.cls-2{fill:none;}.cls-3{fill:#b3b3b3;}.cls-4{fill:#f2f2f2;}</style><clipPath id="clippath"><path class="cls-2" d="m64.4461,89.2769l-4.998,2.499c-.2821.141-.6141.141-.8962,0l-4.998-2.499c-.3395-.1697-.5539-.5167-.5539-.8962v-5.7615c0-.3795.2144-.7265.5539-.8962l4.998-2.499c.2821-.141.6141-.141.8962,0l4.998,2.499c.3395.1697.5539.5167.5539.8962v5.7615c0,.3795-.2144.7265-.5539.8962Z"/></clipPath></defs><g id="Layer_38"><path id="Gear" class="cls-4" d="m12.5435,7l1.3337-1.841c.1368-.105.0864-.448.0864-.448l-1.4393-2.422s-.2736-.2144-.439-.154l-2.0853.1521-1.1962-1.9931c-.0249-.1689-.3405-.294-.3405-.294h-2.8906s-.3311.126-.3527.294l-1.22,1.9686-2.0616-.1276c-.0417-.0137-.0854-.0209-.1295-.021-.1223,0-.3094.175-.3094.175L.0602,4.711s-.0504.343.0864.448l1.4039,1.841-1.4039,1.841c-.1367.105-.0864.448-.0864.448l1.4393,2.422s.2736.2144.439.154l2.0616-.0956,1.22,1.9366c.0216.168.1727.294.3527.294h2.8785c.1799,0,.331-.126.3526-.294l1.1962-1.9363,2.0853.0953c.0432.014.0864.021.1295.021.1224,0,.2447-.063.3094-.175l1.4393-2.422c.0864-.154.0504-.343-.0864-.448l-1.3337-1.841Zm-5.5435,4c-2.2091,0-4-1.7909-4-4s1.7909-4,4-4,4,1.7908,4,4-1.7908,4-4,4Z"/><path id="Gear-2" class="cls-3" d="m12.5435,7l1.3337-1.841c.1368-.105.0864-.448.0864-.448l-1.4393-2.422L4,11.7693l1.22,1.9366c.0216.168.1727.294.3527.294h2.8785c.1799,0,.331-.126.3526-.294l1.1962-1.9363,2.0853.0953c.0432.014.0864.021.1295.021.1224,0,.2447-.063.3094-.175l1.4393-2.422c.0864-.154.0504-.343-.0864-.448l-1.3337-1.841Zm-5.5435,4c-2.2091,0-4-1.7909-4-4s1.7909-4,4-4,4,1.7908,4,4-1.7908,4-4,4Z"/><g id="Clock"><circle id="Clock_Border" cx="7" cy="7" r="4"/><circle id="Clock_Face" class="cls-1" cx="7" cy="7" r="3"/><polyline points="6.2 7.4 7.7516 8.5039 8.2121 7.8033 7.0119 7"/><polyline points="7.2 7.4 7.2 5.7581 6.2 5.7581 6.2 7.4"/></g></g></svg>

<svg xmlns="http://www.w3.org/2000/svg" viewBox="0 0 14 14"><path fill="#f2f2f2" d="m12.544 7 1.333-1.841c.137-.105.087-.448.087-.448l-1.44-2.422s-.273-.214-.439-.154L10 2.287 8.804.294C8.779.125 8.464 0 8.464 0H5.572s-.331.126-.353.294L4 2.263l-2.062-.128a.4.4 0 0 0-.13-.021c-.121 0-.308.175-.308.175L.06 4.711s-.05.343.087.448L1.55 7 .147 8.841c-.137.105-.087.448-.087.448l1.44 2.422s.273.214.439.154L4 11.769l1.22 1.937a.35.35 0 0 0 .353.294H8.45c.18 0 .331-.126.353-.294L10 11.77l2.085.095a.4.4 0 0 0 .13.021.36.36 0 0 0 .31-.175l1.439-2.422a.35.35 0 0 0-.087-.448zM7 11a4 4 0 1 1 0-8 4 4 0 0 1 0 8"/><path fill="#b3b3b3" d="m12.544 7 1.333-1.841c.137-.105.087-.448.087-.448l-1.44-2.422L4 11.769l1.22 1.937a.35.35 0 0 0 .353.294H8.45c.18 0 .331-.126.353-.294L10 11.77l2.085.095a.4.4 0 0 0 .13.02.36.36 0 0 0 .31-.174l1.439-2.422a.35.35 0 0 0-.087-.448zM7 11a4 4 0 1 1 0-8 4 4 0 0 1 0 8"/><circle cx="7" cy="7" r="4"/><circle cx="7" cy="7" r="3" fill="#fff"/><path d="m6.2 7.4 1.552 1.104.46-.7L7.012 7"/><path d="M7.2 7.4V5.758h-1V7.4"/></svg>
